icons/evolvere-blue-folders-flat-vivid-dark-fallback/apps/64/distributor-logo-kubuntu.svg

<?xml version="1.0" encoding="UTF-8" standalone="no"?>
<!-- Created with Inkscape (http://www.inkscape.org/) -->

<svg
   xmlns:dc="http://purl.org/dc/elements/1.1/"
   xmlns:cc="http://creativecommons.org/ns#"
   xmlns:rdf="http://www.w3.org/1999/02/22-rdf-syntax-ns#"
   xmlns:svg="http://www.w3.org/2000/svg"
   xmlns="http://www.w3.org/2000/svg"
   xmlns:sodipodi="http://sodipodi.sourceforge.net/DTD/sodipodi-0.dtd"
   xmlns:inkscape="http://www.inkscape.org/namespaces/inkscape"
   width="64"
   height="64"
   id="svg13094"
   version="1.1"
   inkscape:version="0.91+devel r"
   sodipodi:docname="distributor-logo-kubuntu.svg">
  <sodipodi:namedview
     id="base"
     pagecolor="#ffffff"
     bordercolor="#666666"
     borderopacity="1.0"
     inkscape:pageopacity="0"
     inkscape:pageshadow="2"
     inkscape:zoom="11.313709"
     inkscape:cx="37.652929"
     inkscape:cy="32.847392"
     inkscape:document-units="px"
     inkscape:current-layer="svg13094"
     showgrid="false"
     inkscape:snap-bbox="true"
     inkscape:bbox-paths="true"
     inkscape:bbox-nodes="true"
     inkscape:snap-bbox-edge-midpoints="true"
     inkscape:snap-bbox-midpoints="true"
     inkscape:object-paths="true"
     inkscape:snap-intersection-paths="true"
     inkscape:object-nodes="true"
     inkscape:snap-smooth-nodes="true"
     inkscape:snap-midpoints="true"
     inkscape:snap-object-midpoints="true"
     inkscape:snap-center="true"
     showguides="true"
     inkscape:guide-bbox="true"
     inkscape:window-width="1920"
     inkscape:window-height="1023"
     inkscape:window-x="-10"
     inkscape:window-y="35"
     inkscape:window-maximized="1"
     inkscape:snap-global="false"
     fit-margin-top="0"
     fit-margin-left="0"
     fit-margin-right="0"
     fit-margin-bottom="0"
     showborder="true"
     inkscape:showpageshadow="false"
     inkscape:snap-page="true">
    <inkscape:grid
       type="xygrid"
       id="grid3075"
       empspacing="5"
       visible="true"
       enabled="true"
       snapvisiblegridlinesonly="true"
       originx="1.6362304e-08px"
       originy="18px" />
  </sodipodi:namedview>
  <defs
     id="defs13096" />
  <metadata
     id="metadata13099">
    <rdf:RDF>
      <cc:Work
         rdf:about="">
        <dc:format>image/svg+xml</dc:format>
        <dc:type
           rdf:resource="http://purl.org/dc/dcmitype/StillImage" />
        <dc:title></dc:title>
      </cc:Work>
    </rdf:RDF>
  </metadata>
  <path
     style="color:#000000;fill:#2d7fd4;fill-opacity:1;fill-rule:nonzero;stroke:none;stroke-width:2.28571415;marker:none;visibility:visible;display:inline;overflow:visible;enable-background:accumulate"
     d="M 0 4 L 0 34 L 0 62 L 2 64 L 32 64 L 62 64 L 64 62 L 64 34 L 64 4 L 32 4 L 0 4 z "
     id="path6498" />
  <path
     style="color:#000000;fill:#70c4fe;fill-opacity:1;fill-rule:nonzero;stroke:none;marker:none;visibility:visible;display:inline;overflow:visible;enable-background:accumulate;stroke-width:2.28571415"
     d="M 2 0 L 0 1 L 0 4 L 32 4 L 64 4 L 64 1 L 62 0 L 32 0 L 2 0 z "
     id="path6502" />
  <path
     style="fill:#91d2fe;fill-opacity:1;fill-rule:nonzero"
     d="M 0,3 0,6 2,4 Z"
     id="path4298"
     inkscape:connector-curvature="0"
     sodipodi:nodetypes="cccc" />
  <path
     d="M 64,6 62,4 64,3 z"
     id="path3028"
     style="fill:#499be8;fill-opacity:1"
     inkscape:connector-curvature="0" />
  <g
     id="g3043"
     inkscape:export-filename="folder.png"
     inkscape:export-xdpi="90"
     inkscape:export-ydpi="90"
     transform="translate(-0.62500009,0.082283)" />
  <g
     id="scalable"
     transform="matrix(1.0385892,0,0,1.0385892,1214.7222,1878.8121)"
     inkscape:label="#g3701"
     style="fill:#ffffff" />
  <path
     inkscape:connector-curvature="0"
     id="path3080"
     d="m 31.221206,12.014058 c -1.473488,0.216038 -3.018989,0.585795 -4.431544,1.073264 0.06647,1.695067 0.698661,3.417829 0.986711,5.123973 0.227117,1.058031 0.465313,2.127142 0.692429,3.185172 0.01092,0.0067 0.02365,0.01058 0.03462,0.01731 0.305889,-0.09916 0.619318,-0.185245 0.934778,-0.259661 6.425739,-1.805854 13.730861,2.051667 15.891239,8.361077 0.306875,0.838369 0.541181,1.697038 0.675118,2.579296 2.71895,-0.594461 5.451876,-1.188615 8.170659,-1.783004 0.426536,-0.891848 -0.344136,-2.020506 -0.432768,-3.012064 -0.06093,-1.096807 -0.559483,-2.021892 -1.800314,-1.661829 l -5.418255,0 c -0.692429,-1.606434 -2.762098,-2.751712 -1.471411,-4.535407 0.487469,-1.545502 1.20898,-3.042533 1.557965,-4.604652 -1.202057,-0.891847 -2.54883,-1.717915 -3.894913,-2.371569 -1.628591,1.36824 -3.053609,3.02176 -4.60465,4.500788 -1.706144,-0.830916 -4.315215,0.120482 -4.708515,-2.250394 -0.747823,-1.440251 -1.316999,-3.00514 -2.181151,-4.362301 z m -12.827242,5.868333 c -0.986018,0.09971 -1.551039,1.33431 -2.354256,1.921491 -0.908468,0.625954 -1.454794,1.530959 -0.502012,2.406188 0.936164,1.545501 1.885484,3.093771 2.821647,4.639272 -1.008176,1.423635 -0.911235,3.777892 -3.115929,3.60063 -1.567659,0.382221 -3.222563,0.558097 -4.743136,1.073265 -0.13627,1.484567 -0.140702,3.068151 0,4.552718 2.019122,0.681351 4.177422,1.050414 6.249169,1.609897 0.171721,1.888945 2.359104,3.625557 0.536632,5.193216 -0.841993,1.384857 -1.904871,2.674159 -2.613918,4.11995 0.952781,1.146662 2.067592,2.261472 3.219793,3.219793 1.16882,-0.808756 2.034356,-2.160377 3.081307,-3.185171 0.914007,-1.013716 1.815549,-2.032972 2.735094,-3.046687 0.0015,-0.03456 -0.0016,-0.06929 0,-0.103866 -2.193247,-2.020045 -3.742666,-4.730029 -4.137262,-7.737888 -0.843295,-4.758599 1.315687,-9.684723 5.037419,-12.619513 -2.07039,-1.883482 -4.149766,-3.759731 -6.214548,-5.643295 z m 27.47211,19.093721 c -1.232303,5.559223 -6.264118,10.147502 -12.048261,10.455675 -1.989532,0.201078 -3.975159,-0.130108 -5.799089,-0.848226 -0.01817,0.01002 -0.03376,0.02465 -0.05193,0.03462 -0.714586,2.692162 -1.431942,5.369092 -2.146529,8.066794 0.576101,0.803217 1.947802,0.668886 2.856269,1.073263 0.997097,0.470853 2.054436,0.50132 2.336947,-0.761671 l 2.596608,-4.760447 c 1.73938,0.160643 3.72665,-1.099577 4.673893,0.900158 1.113425,1.16328 2.098752,2.513516 3.306348,3.566008 1.35162,-0.620416 2.728168,-1.409094 3.946843,-2.267704 -0.415458,-2.088366 -1.182669,-4.125491 -1.731072,-6.197237 1.545501,-1.091268 1.975499,-3.856136 4.241126,-3.063997 1.623053,0.05539 3.275187,0.307439 4.881622,0.207728 0.515167,-1.401476 0.922314,-2.923434 1.177129,-4.396922 C 52.820831,38.363737 51.219935,38.286187 49.81292,37.876268 48.497465,37.5851 47.177774,37.273582 45.866077,36.976111 z"
     style="color:#000000;fill:#e2effb;fill-opacity:1;fill-rule:nonzero;stroke:none;stroke-width:1;marker:none;visibility:visible;display:inline;overflow:visible;enable-background:accumulate" />
</svg>

<svg xmlns="http://www.w3.org/2000/svg" viewBox="0 0 64 64"><g color="#000"><path d="m0 4v30 28l2 2h30 30l2-2v-28-30h-32-32" fill="#2d7fd4"/><path d="m2 0l-2 1v3h32 32v-3l-2-1h-30-30" fill="#70c4fe"/></g><path d="m0 3v3l2-2" fill="#91d2fe"/><path d="m64 6l-2-2 2-1z" fill="#499be8"/><path d="m31.22 12.01c-1.473.216-3.02.586-4.432 1.073.066 1.695.699 3.418.987 5.124.227 1.058.465 2.127.692 3.185.011.007.024.011.035.017.306-.099.619-.185.935-.26 6.426-1.806 13.731 2.052 15.891 8.361.307.838.541 1.697.675 2.579 2.719-.594 5.452-1.189 8.171-1.783.427-.892-.344-2.02-.433-3.01-.061-1.097-.559-2.02-1.8-1.662h-5.418c-.692-1.606-2.762-2.752-1.471-4.535.487-1.546 1.209-3.043 1.558-4.605-1.202-.892-2.549-1.718-3.895-2.372-1.629 1.368-3.054 3.02-4.605 4.501-1.706-.831-4.315.12-4.709-2.25-.748-1.44-1.317-3.01-2.181-4.362m-12.827 5.868c-.986.1-1.551 1.334-2.354 1.921-.908.626-1.455 1.531-.502 2.406.936 1.546 1.885 3.094 2.822 4.639-1.01 1.424-.911 3.778-3.116 3.601-1.568.382-3.223.558-4.743 1.073-.136 1.485-.141 3.068 0 4.553 2.02.681 4.177 1.05 6.249 1.61.172 1.889 2.359 3.626.537 5.193-.842 1.385-1.905 2.674-2.614 4.12.953 1.147 2.068 2.261 3.22 3.22 1.169-.809 2.034-2.16 3.081-3.185.914-1.014 1.816-2.033 2.735-3.047.002-.035-.002-.069 0-.104-2.193-2.02-3.743-4.73-4.137-7.738-.843-4.759 1.316-9.685 5.04-12.62-2.07-1.883-4.15-3.76-6.215-5.643m27.472 19.09c-1.232 5.559-6.264 10.148-12.05 10.456-1.99.201-3.975-.13-5.799-.848-.018.01-.034.025-.052.035-.715 2.692-1.432 5.369-2.147 8.07.576.803 1.948.669 2.856 1.073.997.471 2.054.501 2.337-.762l2.597-4.76c1.739.161 3.727-1.1 4.674.9 1.113 1.163 2.099 2.514 3.306 3.566 1.352-.62 2.728-1.409 3.947-2.268-.415-2.088-1.183-4.125-1.731-6.197 1.546-1.091 1.975-3.856 4.241-3.064 1.623.055 3.275.307 4.882.208.515-1.401.922-2.923 1.177-4.397-1.285-.62-2.886-.698-4.293-1.108-1.315-.291-2.635-.603-3.947-.9" fill="#e2effb" color="#000"/></svg>
